X: 1
T: Derri\ere Chez Nous
T: French Bourr\'ee
C:
S: Rustic Roots Tunebook Vol.2
R: march
Z: Andy Reiner (PDF)
Z: 2020 John Chambers <jc:trillian.mit.edu>
M: 2/4
L: 1/8
K: Gmix
|:\
"G"G2 AG | d3 B | "D"A>G AB | "G"G2 "D"d/B/A |\
"G"G2 AG | d3 B | "D"A>G AB | "G"G4 :|
|:\
"G"dG dG | d2 de | f>e dc | dc AB |\
"C"c2 c>d | c3 d | ed cB | "D"A4 :|
